lib/brands/logos/cigna.svg

<svg xmlns="http://www.w3.org/2000/svg" fill="none" aria-hidden="true" viewBox="0 0 106 112"><g id="Cigna"><g id="Group"><path id="Vector" fill="#0982C6" d="M34.7541 31.5507C36.507 31.5507 47.8891 36.5745 47.8891 54.6204C47.8891 63.2446 44.9868 70.4335 43.2731 70.4335C42.5178 70.4335 42.2304 69.6782 42.2304 68.2277C42.2304 65.035 43.3558 62.2064 43.3558 55.3907C43.3558 42.2317 37.9363 36.9221 35.5095 33.934C34.7933 33.0493 34.2501 32.473 34.2501 31.954C34.2501 31.7418 34.4006 31.5507 34.7541 31.5507V31.5507ZM63.4418 31.954C63.4418 32.473 62.8987 33.0493 62.1826 33.934C59.7572 36.9221 54.3392 42.2317 54.3392 55.3907C54.3392 62.2064 55.4601 65.035 55.4601 68.2277C55.4601 69.6782 55.1758 70.4335 54.4205 70.4335C52.7067 70.4335 49.8029 63.2446 49.8029 54.6204C49.8029 36.5745 61.1865 31.5507 62.9424 31.5507C63.2929 31.5507 63.4418 31.7418 63.4418 31.954"/><path id="Vector_2" fill="#F8971F" d="M44.6901 35.163C44.6901 37.5192 46.5497 39.427 48.8442 39.427C51.1447 39.427 53.0058 37.5192 53.0058 35.163C53.0058 32.8039 51.1447 30.8976 48.8442 30.8976C46.5497 30.8976 44.6901 32.8039 44.6901 35.163Z"/><path id="Vector_3" fill="#56B948" d="M27.2563 28.4212C25.0837 27.4387 23.4573 25.4692 23.1925 23.5599C24.8054 22.4977 27.3526 22.4164 29.5282 23.3989C31.8016 24.4281 32.3342 26.1689 32.3478 27.6975C31.1908 28.7011 29.5342 29.4518 27.2563 28.4212ZM33.4898 16.9368C32.092 14.7882 31.7655 12.068 32.6307 10.1888C34.7025 10.1617 37.0541 11.567 38.4503 13.714C39.9113 15.9633 39.3832 17.844 38.5076 19.2343C36.8781 19.469 34.9477 19.1876 33.4898 16.9368ZM36.7246 28.3144C35.0003 26.8534 34.0329 24.6372 34.2887 22.8272C36.0325 22.2795 38.3782 22.8693 40.1024 24.3288C41.9079 25.8619 41.9364 27.5831 41.5498 28.9824C40.2333 29.5903 38.5301 29.843 36.7246 28.3144V28.3144ZM41.9982 22.8152C41.2564 20.4184 41.6747 17.7643 42.9942 16.2191C44.9546 16.7472 46.7963 18.7062 47.538 21.1044C48.3144 23.6156 47.3138 25.2465 46.1162 26.3238C44.5214 26.1102 42.7715 25.3278 41.9982 22.8152ZM32.9165 40.3239C31.1998 40.6579 29.3883 40.1659 28.4164 39.1353C28.9279 37.8128 30.428 36.6798 32.1492 36.3458C33.9472 35.9967 35.0049 36.8137 35.6639 37.7255C35.3946 38.8208 34.722 39.9718 32.9165 40.3239ZM28.3787 35.2384C26.4243 35.0263 24.6414 33.9024 23.9418 32.4715C24.9288 31.2227 26.9133 30.502 28.8707 30.7142C30.9199 30.9368 31.7851 32.1646 32.1898 33.3622C31.5353 34.4485 30.4295 35.4611 28.3787 35.2384ZM28.2042 20.7133C26.6695 19.4118 25.8089 17.4438 26.0361 15.8339C27.5873 15.3449 29.6711 15.8715 31.2058 17.1685C32.8082 18.5316 32.8383 20.0618 32.4938 21.3061C31.3217 21.8492 29.8081 22.0719 28.2042 20.7133ZM38.6625 10.3904C38.0426 8.39231 38.3947 6.17907 39.4915 4.89265C41.1285 5.335 42.6647 6.96747 43.2831 8.96253C43.9301 11.0569 43.092 12.414 42.096 13.3168C40.7644 13.1362 39.311 12.4847 38.6625 10.3904V10.3904ZM12.9644 62.238C12.9644 62.2922 12.999 62.3358 13.0682 62.3358C13.1314 62.3358 13.2472 62.2832 13.3721 62.238C19.5138 60.0353 28.5803 57.3346 41.306 56.5086C41.3211 56.3942 41.3978 55.827 41.3978 55.3907C41.3978 54.4699 41.288 53.5085 41.2594 53.349C28.2192 54.5451 19.2204 58.3261 13.3074 61.9597C13.0682 62.1086 12.9644 62.1432 12.9644 62.238V62.238ZM65.3462 27.6975C65.3597 26.1689 65.8908 24.4281 68.1657 23.3989C70.3368 22.4164 72.8886 22.4977 74.5 23.5599C74.2337 25.4692 72.6087 27.4387 70.4376 28.4212C68.1582 29.4518 66.5047 28.7011 65.3462 27.6975ZM59.1864 19.2343C58.3122 17.844 57.7841 15.9633 59.245 13.714C60.6398 11.567 62.9914 10.1617 65.0632 10.1888C65.9269 12.068 65.5989 14.7882 64.2056 16.9368C62.7477 19.1876 60.8128 19.469 59.1864 19.2343V19.2343ZM56.1411 28.9824C55.7575 27.5831 55.786 25.8619 57.5915 24.3288C59.3173 22.8693 61.66 22.2795 63.4068 22.8272C63.6595 24.6372 62.6921 26.8534 60.9678 28.3144C59.1653 29.843 57.4576 29.5903 56.1411 28.9824V28.9824ZM51.5748 26.3238C50.3786 25.2465 49.3796 23.6156 50.1544 21.1044C50.8932 18.7062 52.7408 16.7472 54.6997 16.2191C56.0192 17.7643 56.4376 20.4184 55.6958 22.8152C54.9195 25.3278 53.1741 26.1102 51.5748 26.3238ZM62.03 37.7255C62.6905 36.8137 63.7438 35.9967 65.5463 36.3458C67.2675 36.6798 68.7645 37.8128 69.2776 39.1353C68.3071 40.1659 66.4957 40.6579 64.7744 40.3239C62.972 39.9718 62.2963 38.8208 62.03 37.7255ZM65.5026 33.3622C65.9088 32.1646 66.774 30.9368 68.8232 30.7142C70.7807 30.502 72.7622 31.2227 73.7507 32.4715C73.0511 33.9024 71.2697 35.0263 69.3152 35.2384C67.263 35.4611 66.1541 34.4485 65.5026 33.3622ZM65.1987 21.3061C64.8542 20.0618 64.8812 18.5316 66.4881 17.1685C68.0228 15.8715 70.1066 15.3449 71.6563 15.8339C71.8835 17.4438 71.0214 19.4118 69.4883 20.7133C67.8844 22.0719 66.3693 21.8492 65.1987 21.3061V21.3061ZM55.5965 13.3168C54.5989 12.414 53.764 11.0569 54.4109 8.96253C55.0293 6.96747 56.5654 5.335 58.1949 4.89265C59.3007 6.17907 59.6468 8.39231 59.0314 10.3904C58.383 12.4847 56.928 13.1362 55.5965 13.3168V13.3168ZM84.3835 61.9597C78.4735 58.3261 69.4732 54.5451 56.4331 53.349C56.4075 53.5085 56.2961 54.4699 56.2961 55.3907C56.2961 55.827 56.3714 56.3942 56.3864 56.5086C69.1106 57.3346 78.1756 60.0353 84.3203 62.238C84.4467 62.2832 84.5655 62.3358 84.6227 62.3358C84.6949 62.3358 84.7296 62.2922 84.7296 62.238C84.7296 62.1432 84.6227 62.1086 84.3835 61.9597V61.9597ZM48.847 15.4172C47.1574 14.6303 45.4933 13.1693 45.4933 10.1316C45.4933 7.23077 46.8625 4.44129 48.847 3.18948C50.8315 4.44129 52.2007 7.23077 52.2007 10.1316C52.2007 13.1693 50.5397 14.6303 48.847 15.4172Z"/><path id="Vector_4" fill="#0982C6" d="M26.0656 77.9049C26.0656 79.3899 27.2889 80.5935 28.8025 80.5935C30.3146 80.5935 31.5393 79.3899 31.5393 77.9049C31.5393 76.4214 30.3146 75.2192 28.8025 75.2192C27.2889 75.2192 26.0656 76.4214 26.0656 77.9049ZM47.4336 92.0554C47.4336 96.2983 45.774 98.0662 43.3742 98.0662C40.9534 98.0662 39.5963 96.0124 39.5963 92.4105C39.5963 88.7333 41.7012 85.6926 45.5966 85.6926C46.4 85.6926 46.9611 85.7723 47.4336 85.8866V92.0554ZM47.6668 99.0156V100.394C47.6668 104.176 45.3377 105.645 42.4475 105.645C39.8491 105.645 37.9322 104.864 37.3274 104.652V108.394C37.8209 108.526 39.9303 109.189 42.941 109.189C48.2867 109.189 51.8586 106.984 51.8586 99.4218V83.1047C51.1725 82.9302 48.6629 82.2651 45.7741 82.2651C38.2753 82.2651 35.0525 87.2904 35.0525 92.7279C35.0525 97.7261 37.5681 101.646 42.3843 101.646C45.5604 101.646 47.0876 99.7272 47.5841 99.0156H47.6668ZM22.1688 96.7075C20.9651 97.2718 19.0393 97.6434 17.1751 97.6434C12.0912 97.6434 8.34777 94.0068 8.34777 88.467C8.34777 82.9618 12.0656 79.2816 17.1751 79.2816C19.7073 79.2816 21.5098 79.9014 22.1688 80.2144V76.2543C21.0584 75.8421 19.2544 75.4253 16.7057 75.4253C8.81568 75.4253 3.51355 80.8794 3.51355 88.467C3.51355 95.6378 8.39289 101.501 16.7057 101.501C19.1431 101.501 20.9787 101.114 22.1688 100.669V96.7075ZM89.1178 92.0554C89.1178 96.2983 87.4568 98.0662 85.0585 98.0662C82.6346 98.0662 81.273 96.0124 81.273 92.4105C81.273 88.7333 83.3869 85.6926 87.2793 85.6926C88.0752 85.6926 88.6394 85.7723 89.1178 85.8866V92.0554ZM94.0995 101.232C93.9566 100.198 93.5413 97.4704 93.5413 95.1247V83.1047C92.8507 82.9302 90.3396 82.2651 87.4568 82.2651C79.955 82.2651 76.7367 87.2904 76.7367 92.7279C76.7367 97.7261 79.2433 101.646 84.064 101.646C87.5832 101.646 89.1615 99.3691 89.7573 98.1549H89.8732C89.9168 98.7312 90.0763 100.69 90.1274 101.232H94.0995ZM31.0172 82.7391H26.5937V101.232H31.0172V82.7391ZM56.8673 101.232V88.4354C56.8673 86.7202 56.7108 83.4297 56.6657 82.6834H60.6407L60.8274 85.2848H60.9101C61.372 84.5566 62.86 82.2651 66.3281 82.2651C70.5153 82.2651 72.8414 85.342 72.8414 89.1772V101.232H68.4209V90.0513C68.4209 87.6966 67.1105 85.9167 64.8581 85.9167C62.5336 85.9167 61.2952 87.7944 61.2952 90.0513V101.232H56.8673ZM100.592 98.0532C100.479 97.9885 100.294 97.9584 100.046 97.9584H99.6593V98.8838H100.067C100.257 98.8838 100.403 98.8687 100.499 98.8296C100.675 98.7589 100.764 98.6265 100.764 98.4279C100.764 98.2413 100.707 98.1164 100.592 98.0532V98.0532ZM100.105 97.6515C100.422 97.6515 100.657 97.6816 100.804 97.7418C101.071 97.8546 101.202 98.0683 101.202 98.3903C101.202 98.6205 101.117 98.792 100.952 98.8973C100.863 98.9545 100.74 98.9966 100.582 99.0207C100.782 99.0523 100.926 99.1365 101.022 99.2734C101.114 99.4074 101.161 99.5398 101.161 99.6691V99.8572C101.161 99.9159 101.162 99.9806 101.165 100.047C101.171 100.115 101.177 100.161 101.19 100.181L101.203 100.212H100.782C100.779 100.203 100.779 100.194 100.776 100.187C100.774 100.179 100.77 100.169 100.77 100.158L100.761 100.077V99.8738C100.761 99.5789 100.678 99.3818 100.519 99.287C100.422 99.2343 100.254 99.2027 100.016 99.2027H99.6593V100.212H99.2095V97.6515H100.105ZM98.7295 97.5206C98.3398 97.9118 98.1472 98.3842 98.1472 98.9409C98.1472 99.4991 98.3399 99.9791 98.7281 100.372C99.1177 100.766 99.5917 100.965 100.15 100.965C100.707 100.965 101.182 100.766 101.573 100.372C101.96 99.9791 102.155 99.4991 102.155 98.9409C102.155 98.3842 101.96 97.9118 101.573 97.5206C101.177 97.1249 100.704 96.9293 100.15 96.9293C99.5962 96.9293 99.1222 97.1249 98.7295 97.5206V97.5206ZM101.802 100.594C101.347 101.052 100.797 101.281 100.15 101.281C99.5029 101.281 98.9522 101.052 98.4993 100.594C98.0479 100.139 97.8208 99.5864 97.8208 98.9379C97.8208 98.2955 98.051 97.7463 98.5039 97.2904C98.9583 96.836 99.5089 96.6088 100.15 96.6088C100.797 96.6088 101.347 96.836 101.802 97.2904C102.259 97.7433 102.486 98.294 102.486 98.9379C102.486 99.5849 102.259 100.137 101.802 100.594Z"/></g></g></svg>

<svg xmlns="http://www.w3.org/2000/svg" fill="none" aria-hidden="true" viewBox="0 0 106 112"><path fill="#0982C6" d="M34.754 31.55c1.753 0 13.135 5.024 13.135 23.07 0 8.625-2.902 15.813-4.616 15.813-.755 0-1.043-.755-1.043-2.205 0-3.193 1.126-6.022 1.126-12.837 0-13.16-5.42-18.469-7.847-21.457-.716-.885-1.259-1.461-1.259-1.98 0-.212.15-.403.504-.403Zm28.688.404c0 .519-.543 1.095-1.26 1.98-2.425 2.988-7.843 8.298-7.843 21.457 0 6.815 1.121 9.644 1.121 12.837 0 1.45-.284 2.206-1.04 2.206-1.713 0-4.617-7.19-4.617-15.814 0-18.045 11.384-23.07 13.14-23.07.35 0 .499.192.499.404"/><path fill="#F8971F" d="M44.69 35.163c0 2.356 1.86 4.264 4.154 4.264 2.3 0 4.162-1.908 4.162-4.264 0-2.36-1.861-4.265-4.162-4.265-2.294 0-4.154 1.906-4.154 4.265Z"/><path fill="#56B948" d="M27.256 28.421c-2.172-.982-3.799-2.952-4.064-4.861 1.613-1.062 4.16-1.144 6.336-.161 2.274 1.03 2.806 2.77 2.82 4.299-1.157 1.003-2.814 1.754-5.092.723Zm6.234-11.484c-1.398-2.149-1.725-4.869-.86-6.748 2.072-.027 4.424 1.378 5.82 3.525 1.461 2.25.933 4.13.057 5.52-1.629.235-3.56-.046-5.017-2.297Zm3.235 11.377c-1.725-1.46-2.692-3.677-2.436-5.487 1.743-.548 4.09.042 5.813 1.502 1.806 1.533 1.834 3.254 1.448 4.653-1.317.608-3.02.861-4.825-.668Zm5.273-5.499c-.742-2.397-.323-5.05.996-6.596 1.96.528 3.802 2.487 4.544 4.885.776 2.512-.224 4.143-1.422 5.22-1.595-.214-3.344-.996-4.118-3.509Zm-9.081 17.509c-1.717.334-3.529-.158-4.5-1.189.51-1.322 2.011-2.455 3.732-2.79 1.798-.348 2.856.469 3.515 1.38-.27 1.096-.942 2.247-2.748 2.599Zm-4.538-5.086c-1.955-.212-3.738-1.336-4.437-2.767.987-1.248 2.971-1.969 4.929-1.757 2.049.223 2.914 1.45 3.319 2.648-.655 1.087-1.76 2.1-3.811 1.876Zm-.175-14.525c-1.535-1.301-2.395-3.27-2.168-4.88 1.551-.488 3.635.038 5.17 1.336 1.602 1.363 1.632 2.893 1.288 4.137-1.172.543-2.686.766-4.29-.593ZM38.663 10.39c-.62-1.998-.268-4.21.829-5.497 1.637.442 3.173 2.074 3.791 4.07.647 2.094-.191 3.451-1.187 4.354-1.332-.18-2.785-.832-3.433-2.927Zm-25.7 51.848c0 .054.035.098.104.098.063 0 .18-.053.304-.098 6.142-2.203 15.208-4.903 27.934-5.73.015-.114.092-.681.092-1.117 0-.921-.11-1.883-.139-2.042-13.04 1.196-22.039 4.977-27.952 8.61-.239.15-.343.184-.343.279Zm52.382-34.54c.014-1.53.545-3.27 2.82-4.3 2.17-.982 4.723-.9 6.334.162-.266 1.91-1.891 3.879-4.062 4.861-2.28 1.03-3.933.28-5.092-.723Zm-6.16-8.464c-.874-1.39-1.402-3.27.059-5.52 1.395-2.147 3.746-3.552 5.818-3.525.864 1.879.536 4.6-.857 6.748-1.458 2.25-3.393 2.532-5.02 2.297Zm-3.045 9.748c-.384-1.399-.355-3.12 1.45-4.653 1.726-1.46 4.069-2.05 5.816-1.502.253 1.81-.715 4.026-2.44 5.487-1.802 1.529-3.51 1.276-4.826.668Zm-4.566-2.658c-1.196-1.078-2.196-2.708-1.42-5.22.738-2.398 2.586-4.357 4.545-4.885 1.32 1.545 1.738 4.2.996 6.596-.776 2.513-2.522 3.295-4.121 3.509ZM62.03 37.725c.66-.911 1.714-1.728 3.516-1.38 1.721.335 3.218 1.468 3.732 2.79-.97 1.03-2.782 1.523-4.504 1.189-1.802-.352-2.478-1.503-2.744-2.599Zm3.473-4.363c.406-1.197 1.271-2.425 3.32-2.648 1.958-.212 3.94.509 4.928 1.758-.7 1.43-2.481 2.554-4.436 2.766-2.052.223-3.161-.79-3.812-1.876Zm-.304-12.056c-.345-1.244-.318-2.774 1.29-4.137 1.534-1.298 3.618-1.824 5.167-1.335.227 1.61-.635 3.578-2.168 4.88-1.604 1.358-3.119 1.135-4.29.592Zm-9.602-7.99c-.998-.902-1.833-2.26-1.186-4.353.618-1.996 2.154-3.628 3.784-4.07 1.106 1.286 1.452 3.5.836 5.497-.648 2.095-2.103 2.746-3.434 2.927ZM84.382 61.96c-5.91-3.634-14.91-7.415-27.95-8.611-.026.16-.137 1.12-.137 2.042 0 .436.075 1.003.09 1.118 12.725.826 21.79 3.526 27.934 5.729.127.045.246.098.303.098.072 0 .107-.044.107-.098 0-.095-.107-.13-.347-.278ZM48.847 15.417c-1.69-.787-3.354-2.248-3.354-5.285 0-2.901 1.37-5.69 3.354-6.943 1.984 1.252 3.354 4.042 3.354 6.943 0 3.037-1.661 4.498-3.354 5.285Z"/><path fill="#0982C6" d="M26.066 77.905c0 1.485 1.223 2.689 2.736 2.689 1.513 0 2.737-1.204 2.737-2.69 0-1.483-1.224-2.685-2.737-2.685-1.513 0-2.736 1.202-2.736 2.686Zm21.368 14.15c0 4.243-1.66 6.011-4.06 6.011-2.42 0-3.778-2.054-3.778-5.656 0-3.677 2.105-6.717 6-6.717.804 0 1.365.08 1.838.194v6.168Zm.233 6.96v1.379c0 3.782-2.33 5.251-5.22 5.251-2.598 0-4.515-.781-5.12-.993v3.742c.494.132 2.603.795 5.614.795 5.346 0 8.918-2.205 8.918-9.767V83.105c-.687-.175-3.196-.84-6.085-.84-7.499 0-10.721 5.025-10.721 10.463 0 4.998 2.515 8.918 7.331 8.918 3.176 0 4.704-1.919 5.2-2.63h.083Zm-25.498-2.308c-1.204.565-3.13.936-4.994.936-5.084 0-8.827-3.636-8.827-9.176 0-5.505 3.718-9.185 8.827-9.185 2.532 0 4.335.62 4.994.932v-3.96c-1.11-.412-2.915-.829-5.463-.829-7.89 0-13.192 5.454-13.192 13.042 0 7.17 4.879 13.034 13.192 13.034 2.437 0 4.273-.387 5.463-.832v-3.962Zm66.949-4.652c0 4.243-1.661 6.011-4.06 6.011-2.423 0-3.785-2.054-3.785-5.656 0-3.677 2.114-6.717 6.006-6.717.796 0 1.36.08 1.839.194v6.168Zm4.982 9.177c-.143-1.034-.559-3.762-.559-6.107v-12.02c-.69-.175-3.201-.84-6.084-.84-7.502 0-10.72 5.025-10.72 10.463 0 4.998 2.506 8.918 7.327 8.918 3.52 0 5.098-2.277 5.693-3.491h.116c.044.576.203 2.535.254 3.077H94.1ZM31.017 82.739h-4.423v18.493h4.423V82.739Zm25.85 18.493V88.435c0-1.715-.156-5.005-.201-5.752h3.975l.186 2.602h.083c.462-.728 1.95-3.02 5.418-3.02 4.187 0 6.513 3.077 6.513 6.912v12.055h-4.42v-11.18c0-2.355-1.31-4.135-3.563-4.135-2.324 0-3.563 1.877-3.563 4.134v11.181h-4.428Zm43.725-3.179c-.113-.064-.298-.095-.546-.095h-.387v.926h.408c.19 0 .336-.015.432-.054.176-.071.265-.204.265-.402 0-.187-.057-.312-.172-.375Zm-.487-.401c.317 0 .552.03.699.09.267.113.398.326.398.648 0 .23-.085.402-.25.507a.952.952 0 0 1-.37.124c.2.031.344.115.44.252a.701.701 0 0 1 .139.396v.188c0 .059.001.124.004.19a.373.373 0 0 0 .025.134l.013.031h-.421c-.003-.009-.003-.018-.006-.025-.002-.008-.006-.018-.006-.029l-.009-.081v-.203c0-.295-.083-.492-.242-.587-.097-.053-.265-.084-.503-.084h-.357v1.009h-.45v-2.56h.896Zm-1.376-.131a1.93 1.93 0 0 0-.582 1.42c0 .558.193 1.038.581 1.431.39.394.864.593 1.422.593.557 0 1.032-.199 1.423-.593a1.97 1.97 0 0 0 .582-1.431c0-.557-.195-1.03-.582-1.42a1.938 1.938 0 0 0-1.423-.592c-.554 0-1.028.196-1.42.592Zm3.073 3.073a2.242 2.242 0 0 1-1.652.687 2.235 2.235 0 0 1-1.65-.687 2.266 2.266 0 0 1-.68-1.656c0-.642.231-1.192.684-1.648a2.246 2.246 0 0 1 1.646-.681 2.25 2.25 0 0 1 1.652.681c.457.453.684 1.004.684 1.648 0 .647-.227 1.199-.684 1.656Z"/></svg>
